X:38
T:Miss Maraine Oliphant
M:4/4
L:1/8
C:R. Mackintosh
R:Strathspey
K:G
D|"G"G,>B, D=F "C"EC C3/2 B,/4C/4|"D"D>F Ac "G"BG G3/2 F/4G/4|G,>B, D<=F
 "C"
E<C c>e|
"D"dc/B/ cB/A/ G2 G:||!
g/a/|"G"b>g gb "D"a<d g<a|"Em"gf a/g/f/e/ "Bm"fB Bc/d/|"C"c>e g<c "G"B>d
 g<B|
"D"Ae dF G2 G, g/a/|!
"G"b/a/g g/a/b "D"a<d f<a|"C"g>f a/g/f/e/ "Bm"f<B B>d|"C"c>c' a<c "G"B>d
 g<B|"D"c<a d>f g2 G||
